icons/mail-download-line.svg

<svg viewBox="0 0 24 24" fill="currentColor" xmlns="http://www.w3.org/2000/svg">
    <path d="M20 7.23792L12.0718 14.338L4 7.21594V19H13V21H3C2.44772 21 2 20.5523 2 20V4C2 3.44772 2.44772 3 3 3H21C21.5523 3 22 3.44772 22 4V12H20V7.23792ZM19.501 5H4.51146L12.0619 11.662L19.501 5ZM20 18H23L19 22L15 18H18V14H20V18Z"/>
</svg>

<svg xmlns="http://www.w3.org/2000/svg" viewBox="0 0 24 24">
    <g>
        <path fill="none" d="M0 0h24v24H0z"/>
        <path d="M20 7.238l-7.928 7.1L4 7.216V19h9v2H3a1 1 0 0 1-1-1V4a1 1 0 0 1 1-1h18a1 1 0 0 1 1 1v8h-2V7.238zM19.501 5H4.511l7.55 6.662L19.502 5zM20 18h3l-4 4-4-4h3v-4h2v4z"/>
    </g>
</svg>
